svg/color/matic.svg

<svg width="64" height="65" viewBox="0 0 64 65" fill="none" xmlns="http://www.w3.org/2000/svg">
<g clip-path="url(#clip0_11313_5281)">
<rect y="0.303711" width="64" height="64" rx="32" fill="#7B3FE4"/>
<path d="M53.3331 33.0507V42.7046C53.3297 43.3067 53.1707 43.8975 52.8715 44.4193C52.5723 44.9412 52.1434 45.3761 51.6265 45.6818L43.2931 50.4988C42.7771 50.8075 42.1874 50.9704 41.5865 50.9704C40.9856 50.9704 40.3959 50.8075 39.8799 50.4988L31.5465 45.6818C31.0296 45.3761 30.6007 44.9412 30.3015 44.4193C30.0024 43.8975 29.8433 43.3067 29.8399 42.7046V39.9951L34.1065 37.5097V42.2196L41.5731 46.5682L49.0399 42.2196V33.5424L41.5731 29.1937L24.0799 39.3628C23.5589 39.6574 22.9711 39.8122 22.3731 39.8122C21.7752 39.8122 21.1875 39.6574 20.6665 39.3628L12.3331 34.5259C11.8243 34.2156 11.4035 33.7789 11.1116 33.258C10.8197 32.7372 10.6664 32.1496 10.6665 31.552V21.898C10.6699 21.296 10.8291 20.7052 11.1282 20.1834C11.4274 19.6616 11.8563 19.2265 12.3731 18.9209L20.7065 14.104C21.2237 13.7983 21.813 13.6371 22.4131 13.6371C23.0134 13.6371 23.6027 13.7983 24.1199 14.104L32.4531 18.9209C32.97 19.2265 33.399 19.6616 33.6981 20.1834C33.9973 20.7052 34.1563 21.296 34.1599 21.898V24.6076L29.8665 27.0763V22.3932L22.3999 18.0445L14.9331 22.3932V31.0603L22.3999 35.4089L39.8931 25.2398C40.4141 24.9452 41.0019 24.7905 41.5999 24.7905C42.1978 24.7905 42.7855 24.9452 43.3065 25.2398L51.6399 30.0768C52.1537 30.3839 52.5797 30.8191 52.8764 31.3401C53.1731 31.8612 53.3305 32.4505 53.3331 33.0507Z" fill="white"/>
</g>
<rect x="0.5" y="0.803711" width="63" height="63" rx="31.5" stroke="#070B14" stroke-opacity="0.15"/>
<defs>
<clipPath id="clip0_11313_5281">
<rect y="0.303711" width="64" height="64" rx="32" fill="white"/>
</clipPath>
</defs>
</svg>

<svg xmlns="http://www.w3.org/2000/svg" width="64" height="65" fill="none" viewBox="0 0 64 65"><g clip-path="url(#matic_svg-a)"><rect width="64" height="64" y=".304" fill="#7B3FE4" rx="32"/><path fill="#fff" d="M53.333 33.05v9.655a3.49 3.49 0 0 1-1.706 2.977l-8.334 4.817a3.32 3.32 0 0 1-3.413 0l-8.333-4.817a3.47 3.47 0 0 1-1.707-2.977v-2.71l4.266-2.485v4.71l7.467 4.348 7.467-4.348v-8.678l-7.467-4.348L24.08 39.363a3.47 3.47 0 0 1-3.413 0l-8.334-4.837a3.47 3.47 0 0 1-1.667-2.974v-9.654a3.49 3.49 0 0 1 1.707-2.977l8.333-4.817a3.35 3.35 0 0 1 3.414 0l8.333 4.817a3.47 3.47 0 0 1 1.707 2.977v2.71l-4.293 2.468v-4.683L22.4 18.044l-7.467 4.35v8.666l7.467 4.35 17.493-10.17a3.47 3.47 0 0 1 3.413 0l8.334 4.838a3.48 3.48 0 0 1 1.693 2.974"/></g><rect width="63" height="63" x=".5" y=".804" stroke="#070B14" stroke-opacity=".15" rx="31.5"/><defs><clipPath id="matic_svg-a"><rect width="64" height="64" y=".304" fill="#fff" rx="32"/></clipPath></defs></svg>
